X: 1
T: Loch Erichtside
T: 8x32S 3C (Border Dance Book)
P: Loch Erichtside
C: Border Book
C: arr. T. Traub 8-21-2014
K: C
M: 4/4
L: 1/8
G/F/|: "C"E<GG>A c/B/c/d/ c>B|"F"A>GA>c "G"d/c/d/e/ d>D|"C"E<GG>A c>de>d|"F"c>A "C"G/A/c/E/ "G"D2 C>G :|
"C"e<g ce/f/ g/f/e/f/ g>e|"F"f<a df/g/ a/g/f/g/ ag/f/|"C"e<g ce/f/ g/f/e/f/ gc|"C"G>ce>c "G"d2 "C"c>g|
"C"e<g ce/f/ g/f/e/f/ g>e|"F"f<a df/g/ a/g/f/g/ ag/f/|"C"e>gd>e "F"c>Gc>a|"C"c>Ge>E "G"D2 "C"C2 |]
